icons/op-pre-24.svg

<svg width="24" height="24" viewBox="0 0 24 24" fill="none" xmlns="http://www.w3.org/2000/svg">
<path d="M4 16V8.09375H4.62992C4.75591 8.09375 4.85039 8.1875 4.88189 8.3125L4.97638 9C5.22835 8.6875 5.54331 8.46875 5.85827 8.28125C6.17323 8.09375 6.55118 8 6.99213 8C7.30709 8 7.62205 8.0625 7.90551 8.1875C8.18898 8.3125 8.40945 8.53125 8.62992 8.78125C8.8189 9.03125 8.97638 9.34375 9.07087 9.71875C9.16535 10.0938 9.22835 10.5312 9.22835 11C9.22835 11.4375 9.16535 11.8438 9.03937 12.2188C8.94488 12.5938 8.75591 12.9375 8.53543 13.1875C8.31496 13.4688 8.06299 13.6875 7.74803 13.8438C7.43307 14 7.05512 14.0938 6.64567 14.0938C6.29921 14.0938 5.98425 14.0312 5.73228 13.9062C5.44882 13.7812 5.22835 13.625 5.03937 13.375V16H4ZM5.03937 12.5938C5.22835 12.8438 5.44882 13.0312 5.66929 13.125C5.88976 13.2188 6.14173 13.2812 6.4252 13.2812C6.99213 13.2812 7.40157 13.0938 7.71654 12.6875C8 12.3125 8.15748 11.75 8.15748 11C8.15748 10.625 8.12598 10.2812 8.06299 10.0312C7.9685 9.75 7.87402 9.5 7.74803 9.34375C7.62205 9.15625 7.46457 9.03125 7.27559 8.9375C7.08661 8.875 6.86614 8.8125 6.64567 8.8125C6.29921 8.8125 5.98425 8.90625 5.73228 9.0625C5.48031 9.21875 5.25984 9.4375 5.03937 9.71875V12.5938ZM10.4567 14V8.09375H11.0551C11.1811 8.09375 11.2441 8.125 11.2756 8.15625C11.3386 8.21875 11.3701 8.28125 11.3701 8.375L11.4646 9.28125C11.6535 8.875 11.9055 8.5625 12.2205 8.34375C12.5039 8.125 12.8504 8 13.2598 8C13.4173 8 13.5748 8.03125 13.7008 8.0625C13.8583 8.09375 13.9528 8.15625 14.0787 8.21875L13.9528 8.9375C13.9213 9.03125 13.8583 9.09375 13.7638 9.09375C13.7008 9.09375 13.6378 9.0625 13.5118 9.03125C13.3858 9 13.2283 8.96875 13.0394 8.96875C12.6614 8.96875 12.378 9.09375 12.126 9.28125C11.874 9.5 11.685 9.8125 11.4961 10.2188V14H10.4567ZM14.7717 10.9375C14.7717 10.5312 14.8346 10.125 14.9606 9.78125C15.0866 9.4375 15.2756 9.125 15.4961 8.84375C15.748 8.59375 16.0315 8.375 16.378 8.25C16.7244 8.09375 17.1339 8 17.5433 8C17.9213 8 18.2362 8.0625 18.5197 8.1875C18.8346 8.3125 19.0866 8.46875 19.3071 8.71875C19.5276 8.9375 19.7165 9.21875 19.811 9.53125C19.937 9.875 20 10.2188 20 10.6562C20 10.8125 20 10.9375 19.9685 10.9688C19.937 11.0312 19.8425 11.0625 19.748 11.0625H15.811C15.811 11.4375 15.874 11.75 15.9685 12.0312C16.063 12.3125 16.189 12.5312 16.3465 12.7188C16.5039 12.9062 16.7244 13.0312 16.9449 13.125C17.1654 13.2188 17.4173 13.25 17.7008 13.25C17.9528 13.25 18.2047 13.2188 18.3937 13.1562C18.5827 13.0938 18.7402 13.0312 18.8661 12.9688C18.9921 12.9062 19.1181 12.8438 19.2126 12.7812C19.3071 12.7188 19.3701 12.6875 19.4331 12.6875C19.5276 12.6875 19.5906 12.7188 19.6535 12.7812L19.937 13.1562C19.811 13.3125 19.6535 13.4688 19.4646 13.5938C19.3071 13.6875 19.0866 13.7812 18.8976 13.875C18.6772 13.9375 18.4882 14 18.2677 14.0312C18.0472 14.0625 17.8268 14.0938 17.6063 14.0938C17.1969 14.0938 16.8189 14.0312 16.4724 13.875C16.126 13.75 15.811 13.5312 15.5591 13.2812C15.3071 13 15.1181 12.6875 14.9921 12.2812C14.8346 11.9062 14.7717 11.4375 14.7717 10.9375ZM15.8425 10.4062H19.0866C19.0866 10.1562 19.0551 9.9375 18.9921 9.75C18.8976 9.53125 18.8031 9.375 18.6772 9.21875C18.5512 9.0625 18.3937 8.96875 18.2047 8.875C18.0157 8.8125 17.8268 8.75 17.5748 8.75C17.0709 8.75 16.6614 8.90625 16.378 9.1875C16.0945 9.5 15.9055 9.90625 15.8425 10.4062Z" fill="black"/>
</svg>

<svg xmlns="http://www.w3.org/2000/svg" width="24" height="24" viewBox="0 0 24 24"><path d="M4 16V8.094h.63c.126 0 .22.094.252.218L4.976 9c.252-.312.567-.531.882-.719C6.173 8.094 6.551 8 6.992 8c.315 0 .63.062.914.188.283.124.503.343.724.593.189.25.346.563.441.938.094.375.157.812.157 1.281 0 .438-.063.844-.189 1.219a2.363 2.363 0 0 1-.504.969c-.22.281-.472.5-.787.656a2.49 2.49 0 0 1-1.102.25 2.07 2.07 0 0 1-.914-.188 1.654 1.654 0 0 1-.693-.531V16H4Zm1.039-3.406c.189.25.41.437.63.531.221.094.473.156.756.156.567 0 .977-.187 1.292-.593.283-.376.44-.938.44-1.688 0-.375-.031-.719-.094-.969-.095-.281-.189-.531-.315-.687a1.163 1.163 0 0 0-.472-.406 2.04 2.04 0 0 0-.63-.126c-.347 0-.662.094-.914.25-.252.157-.472.376-.693.657v2.875ZM10.457 14V8.094h.598c.126 0 .189.031.221.062a.283.283 0 0 1 .094.219l.095.906c.188-.406.44-.719.755-.937A1.66 1.66 0 0 1 13.26 8c.157 0 .315.031.441.062.157.032.252.094.378.157l-.126.719c-.032.093-.095.156-.189.156-.063 0-.126-.032-.252-.063a1.94 1.94 0 0 0-.473-.062c-.378 0-.661.125-.913.312-.252.219-.441.531-.63.938V14h-1.039Zm4.315-3.062c0-.407.063-.813.189-1.157.126-.343.315-.656.535-.937.252-.25.536-.469.882-.594.346-.156.756-.25 1.165-.25.378 0 .693.062.977.188.315.124.567.281.787.531.221.219.409.5.504.812.126.344.189.688.189 1.125 0 .156 0 .282-.032.313-.031.062-.125.093-.22.093h-3.937c0 .376.063.688.158.969.094.281.22.5.377.688.158.187.378.312.599.406.22.094.472.125.756.125.252 0 .504-.031.693-.094a3.68 3.68 0 0 0 .472-.187c.126-.063.252-.125.347-.188.094-.062.157-.093.22-.093.095 0 .158.031.221.093l.283.375a2.118 2.118 0 0 1-.472.438c-.158.094-.378.187-.567.281-.221.063-.41.125-.63.156-.221.031-.441.063-.662.063-.409 0-.787-.063-1.134-.219a2.564 2.564 0 0 1-.913-.594 2.594 2.594 0 0 1-.567-1c-.157-.375-.22-.843-.22-1.343Zm1.07-.532h3.245c0-.25-.032-.468-.095-.656a2.136 2.136 0 0 0-.315-.531c-.126-.157-.283-.25-.472-.344a1.865 1.865 0 0 0-.63-.125c-.504 0-.914.156-1.197.438-.283.312-.473.718-.536 1.218Z"/></svg>
